brandFactory_export/3.Masa/Pregunta interrogacion _3Masa.svg

<?xml version="1.0" encoding="UTF-8"?>
<svg width="24px" height="24px" viewBox="0 0 24 24" version="1.1" xmlns="http://www.w3.org/2000/svg" xmlns:xlink="http://www.w3.org/1999/xlink">
    <title>3.Masa/Pregunta interrogacion _3Masa</title>
    <g id="Symbols" stroke="none" stroke-width="1" fill="none" fill-rule="evenodd">
        <g id="3.Masa/Pregunta-interrogacion-_3Masa" fill="#5CB615" fill-rule="nonzero">
            <path d="M13.6705882,11.8957983 C12.0638655,13.7546218 12.0033613,13.8285714 12.0033613,15.5630252 C12.0033613,15.8285714 11.7882353,16.0436975 11.5226891,16.0436975 L10.9915966,16.0436975 C10.7596639,16.0436975 10.5613445,15.8823529 10.5210084,15.6537815 C10.4739496,15.4151261 10.4537815,15.1865546 10.4537815,14.8941176 C10.4537815,13.5932773 10.9109244,12.8235294 11.9361345,11.589916 L12.1310924,11.3546218 C13.8184874,9.35798319 14.1378151,8.80336134 14.1378151,7.85882353 C14.1378151,7.18991597 13.9462185,6.75294118 13.4957983,6.39327731 C13.2369748,6.18823529 12.7831933,5.94957983 11.5428571,5.94957983 C10.8705882,5.94957983 10.2722689,6.02689076 9.54285714,6.21176471 C9.41512605,6.24201681 9.27731092,6.22184874 9.16638655,6.14789916 C9.05546218,6.07731092 8.97815126,5.96302521 8.95462185,5.83193277 L8.87731092,5.41848739 C8.83697479,5.20336134 8.94453782,4.98823529 9.14285714,4.89411765 C9.59663866,4.6789916 10.7058824,4.45714286 11.7781513,4.45714286 C12.907563,4.45714286 13.8084034,4.7092437 14.4605042,5.2 C15.297479,5.81512605 15.6907563,6.66890756 15.6907563,7.8789916 C15.687395,9.35798319 15.0722689,10.2386555 13.6705882,11.8957983 M11.3243697,19.3546218 C10.6823529,19.3546218 10.2756303,18.9546218 10.2756303,18.3630252 L10.2756303,18.2857143 C10.2756303,17.6907563 10.692437,17.2739496 11.287395,17.2739496 C11.9226891,17.2739496 12.3361345,17.6907563 12.3361345,18.2857143 C12.3361345,18.9579832 11.9294118,19.3546218 11.3243697,19.3546218 M12.292437,0.0134453782 C11.9630252,0.00672268908 11.5697479,-0.00336134454 11.2201681,0.00336134454 C9.34453782,0.0201680672 0,0.662184874 0,11.7781513 C0,22.897479 9.40840336,23.5966387 11.2941176,23.6235294 C11.405042,23.6268908 11.5226891,23.6268908 11.6336134,23.6268908 C11.8789916,23.6268908 12.1210084,23.6235294 12.3294118,23.6201681 C14.2151261,23.5865546 23.620169,22.8571429 23.620169,11.8453782 C23.6235294,0.840336134 14.1848739,0.0571428571 12.292437,0.0134453782" id="Pregunta-interrogacion-_3Masa"></path>
        </g>
    </g>
</svg>

<svg width="24" height="24" viewBox="0 0 24 24" xmlns="http://www.w3.org/2000/svg"><path d="M13.67 11.896c-1.606 1.859-1.667 1.933-1.667 3.667a.48.48 0 01-.48.48h-.531a.473.473 0 01-.471-.39 3.757 3.757 0 01-.067-.759c0-1.3.457-2.07 1.482-3.304l.195-.235c1.687-1.997 2.007-2.552 2.007-3.496 0-.67-.192-1.106-.642-1.466-.259-.205-.713-.443-1.953-.443-.672 0-1.27.077-2 .262a.48.48 0 01-.588-.38l-.078-.414a.48.48 0 01.266-.524c.454-.215 1.563-.437 2.635-.437 1.13 0 2.03.252 2.683.743.836.615 1.23 1.469 1.23 2.679-.004 1.479-.619 2.36-2.02 4.017m-2.347 7.459c-.642 0-1.048-.4-1.048-.992v-.077c0-.595.416-1.012 1.011-1.012.636 0 1.05.417 1.05 1.012 0 .672-.408 1.069-1.013 1.069M12.292.013c-.329-.006-.722-.016-1.072-.01C9.345.02 0 .663 0 11.778c0 11.12 9.408 11.819 11.294 11.846a43.336 43.336 0 001.035-.003c1.886-.034 11.291-.764 11.291-11.776C23.624.84 14.185.057 12.292.013" fill="#5CB615" fill-rule="nonzero"/></svg>
